lib/flags/m/EGY.svg

<svg xmlns="http://www.w3.org/2000/svg" fill="none" viewBox="0 0 20 15"><mask id="EGY_svg__a" width="20" height="15" x="0" y="0" mask-type="alpha" maskUnits="userSpaceOnUse"><path fill="#fff" d="M0 0H20V15H0z"/></mask><g mask="url(#EGY_svg__a)"><path fill="#F7FCFF" fill-rule="evenodd" d="M0 0V15H20V0H0Z" clip-rule="evenodd"/><mask id="EGY_svg__b" width="20" height="15" x="0" y="0" mask-type="alpha" maskUnits="userSpaceOnUse"><path fill="#fff" fill-rule="evenodd" d="M0 0V15H20V0H0Z" clip-rule="evenodd"/></mask><g mask="url(#EGY_svg__b)"><path fill="#BF2714" fill-rule="evenodd" d="M0 0V5H20V0H0Z" clip-rule="evenodd"/><path fill="#272727" fill-rule="evenodd" d="M0 10V15H20V10H0Z" clip-rule="evenodd"/><path fill="#C09302" d="M7.6627 6.3877 8.28705 6.41632 8.13033 9.83494 7.50598 9.80632 7.6627 6.3877zM8.31505 6.59985 8.93905 6.63513 8.78233 9.40721 8.15833 9.37193 8.31505 6.59985z"/><path fill="#C09302" d="M8.96776 6.8075 9.59066 6.85861 9.43394 8.76861 8.81104 8.7175 8.96776 6.8075zM12.3373 6.3877 11.713 6.41632 11.8697 9.83494 12.494 9.80632 12.3373 6.3877zM11.685 6.59985 11.061 6.63513 11.2177 9.40721 11.8417 9.37193 11.685 6.59985z"/><path fill="#C09302" d="M11.0322 6.8075 10.4093 6.85861 10.5661 8.76861 11.189 8.7175 11.0322 6.8075zM9.98336 9.57923 9.37415 9.43965 9.632 8.31421 10.2412 8.45379 9.98336 9.57923z"/><path fill="#C09302" d="M10.4497 9.57923L11.0589 9.43965L10.801 8.31421L10.1918 8.45379L10.4497 9.57923Z"/><path fill="#C09302" d="M10.2951 9.56894H9.6701V8.46399H10.2951V9.56894zM9.14673 6.8208 9.77155 6.83613 9.73504 8.32419 9.11023 8.30886 9.14673 6.8208zM10.2337 6.8208 10.8585 6.83613 10.822 8.32419 10.1972 8.30886 10.2337 6.8208z"/><path fill="#C09302" d="M8.33624 9.95182 8.49856 9.34827C9.16171 9.52661 9.67091 9.61481 10.0181 9.61481 10.3653 9.61481 10.8745 9.52661 11.5377 9.34827L11.7 9.95182C10.9885 10.1432 10.4306 10.2398 10.0181 10.2398 9.60569 10.2398 9.04773 10.1432 8.33624 9.95182zM7.67646 6.38922C7.63479 5.97634 7.87644 5.69686 8.28598 5.7325 8.42064 5.74422 8.57189 5.78406 8.77333 5.85241 8.83219 5.8726 8.83219 5.8726 8.88939 5.89285 9.16632 5.99135 9.24152 6.01666 9.25713 6.02 9.19577 6.0061 9.3765 5.67937 9.41795 5.6243 9.42286 5.65927 9.40205 5.65429 9.35209 5.6443L8.78832 5.53146 9.18964 5.11974C9.32992 4.97583 9.51673 4.90447 9.72991 4.90447 9.75201 4.90447 9.77263 4.90344 9.84035 4.89927 9.89044 4.89623 9.89044 4.89623 9.94675 4.8939 10.3367 4.88126 10.6164 4.99154 10.6164 5.39257 10.6164 5.53604 10.6345 5.76676 10.6644 5.94179 10.6745 6.00067 10.6939 6.05578 10.6366 6.07999 10.639 6.0591 10.7756 6.0052 10.988 5.91637L11.0135 5.90571C11.6306 5.64813 11.7027 5.62423 11.9016 5.74513 12.0342 5.8257 12.1604 5.97062 12.3019 6.18669L11.779 6.529C11.6877 6.38963 11.6151 6.30507 11.5805 6.28145 11.6591 6.33608 11.3943 6.42401 11.2542 6.48249L11.2291 6.49298C10.7486 6.69393 10.6853 6.7179 10.5479 6.7179 10.174 6.7179 10.0398 6.33492 10.003 5.78645 9.88766 6.16619 9.54349 6.6454 9.25988 6.6454 9.13573 6.6454 9.19542 6.66505 8.67995 6.48171 8.62594 6.46259 8.62594 6.46259 8.57253 6.44427 8.41637 6.39129 8.30371 6.36157 8.23264 6.35522 8.23557 6.35187 8.24604 6.34062 8.25778 6.33056L7.67646 6.38922z"/></g></g></svg>

<svg xmlns="http://www.w3.org/2000/svg" fill="none" viewBox="0 0 20 15"><mask id="EGY_svg__a" width="20" height="15" x="0" y="0" maskUnits="userSpaceOnUse"><path fill="#fff" d="M0 0h20v15H0z"/></mask><g mask="url(#EGY_svg__a)"><path fill="#F7FCFF" fill-rule="evenodd" d="M0 0v15h20V0H0z" clip-rule="evenodd"/><mask id="EGY_svg__b" width="20" height="15" x="0" y="0" maskUnits="userSpaceOnUse"><path fill="#fff" fill-rule="evenodd" d="M0 0v15h20V0H0z" clip-rule="evenodd"/></mask><g mask="url(#EGY_svg__b)"><path fill="#BF2714" fill-rule="evenodd" d="M0 0v5h20V0H0z" clip-rule="evenodd"/><path fill="#272727" fill-rule="evenodd" d="M0 10v5h20v-5H0z" clip-rule="evenodd"/><path fill="#C09302" d="M7.663 6.388l.624.028-.157 3.419-.624-.029.157-3.418zm.652.212l.624.035-.157 2.772-.624-.035.157-2.772z"/><path fill="#C09302" d="M8.968 6.807l.623.052-.157 1.91-.623-.052.157-1.91zm3.369-.419l-.624.028.157 3.419.624-.029-.157-3.418zm-.652.212l-.624.035.157 2.772.624-.035-.157-2.772z"/><path fill="#C09302" d="M11.032 6.807l-.623.052.157 1.91.623-.052-.157-1.91zM9.983 9.58l-.609-.14.258-1.126.61.14-.259 1.125z"/><path fill="#C09302" d="M10.45 9.58l.609-.14-.258-1.126-.61.14.259 1.125z"/><path fill="#C09302" d="M10.295 9.569H9.67V8.464h.625v1.105zM9.147 6.82l.625.016-.037 1.488-.625-.015.037-1.488zm1.087 0l.624.016-.036 1.488-.625-.015.037-1.488z"/><path fill="#C09302" d="M8.336 9.952l.163-.604c.663.179 1.172.267 1.52.267.346 0 .855-.088 1.519-.267l.162.604c-.711.191-1.27.288-1.682.288-.412 0-.97-.097-1.682-.288zm-.66-3.562c-.041-.414.2-.693.61-.658.135.012.286.052.487.12l.116.04c.277.1.353.125.368.128-.061-.014.12-.34.16-.396.006.035-.015.03-.065.02l-.564-.113.402-.411a.732.732 0 01.54-.216c.022 0 .043 0 .11-.005l.107-.005c.39-.013.67.098.67.499 0 .143.017.374.047.549.01.059.03.114-.027.138.002-.02.138-.075.35-.164l.026-.01c.618-.258.69-.282.889-.16.132.08.258.225.4.44l-.523.343a1.09 1.09 0 00-.198-.248c.078.055-.187.143-.327.201l-.025.011c-.48.2-.544.225-.681.225-.374 0-.508-.383-.545-.932-.115.38-.46.86-.743.86-.124 0-.065.019-.58-.164l-.107-.038a1.682 1.682 0 00-.34-.089.284.284 0 01.025-.024l-.582.058z"/></g></g></svg>
